X:1
T:178 - O Culto Findou
T:﻿Letra: Sarah Poulton Kalley (1825-1907)
T:Música: Christopher Edwin Willing (1830-1904)
M: 3/4
L: 1/8
Q:1/4=90
K:C
V:1
G2| "C"G2>A2G2| c2E2 "G7"D2| "Am"C4 "G"D2| "C"E2>F2G2| A2G2E2| "G"D2z2G2| "C"G2>A2G2| c2e2"G7"d2| "Am"c4"F"A2| "C"G2>A2"G7"B2| "C"c2E2"G7"D2| "C"C2z2 |]
w: 1.~O cul-to sa-gra-do fin-dou, No di-a ben-di-to de Deus: Nos-soúl-ti-mo can-to so-ou Eas pre-ces su-bi-ram aos céus.
w: 2.~Das fal-tas con-ce-de per-dão, A-cei-taem Je-sus o lou-vor; E, com a di-vi-na san-ção, Des-pe-de-nos, gran-de Se-nhor!
W: 
W:
W: 1. O culto sagrado findou,
W: No dia bendito de Deus:
W: Nosso último canto soou
W: E as preces subiram aos céus.
W: 
W:
W:
W: 2. Das faltas concede perdão,
W: Aceita em Jesus o louvor;
W: E, com a divina sanção,
W: Despede-nos, grande Senhor!
W:         
W: 





